X:21
T:Szagos rozmaring
M:4/4
L:1/4
K:D
A/A/B/A/ F<D | d/d/e/d/ c<B | AE F A | D2 D z |
A/A/B/A/ F<D | d/d/e/d/ c<B | AE F A | D2 D z |
d<e f e | d2 A2 | BcdB | c d e/d/c/B/ |
A/A/B/A/ F<D | d/d/e/d/ c<B | A E/E/ F A | D2 D2 |

